X: 15111
T: Rob Shear'd in Her'st
%R: minuet
B: James Oswald "The Caledonian Pocket Companion" v.1 b.5 p.11
S: https://ia800501.us.archive.org/18/items/caledonianpocket01rugg/caledonianpocket01rugg_bw.pdf
Z: 2020 John Chambers <jc:trillian.mit.edu>
N: The double bar line between bars 28,29 (strains 5,6) is a bit odd; perhaps it should be another repeat sign?
M: 3/2
L: 1/8
K: G
|: "_Brisk"\
Bcd2 G2B2 d4 | A4 c3d e2(dc) | Bcd2 G2B2 d4 | G2d4g2 (gfed) ::\
g4 B2d2 (edcB) | A4 c3d e4 | g4 B2d2 (edcB) |
g4 f2e2 (fga2) |\
g4 G2g2 (edcB) | A2a2 ( cBcd) e4 | Bcd2 G2B2 d4 | B2d4g2 (gfed) ::\
G2(dB) G2d2 TB4 | A2(ec) A2e2 c2a2 |
G2(dB) G2d2 TB4 | G2(dB) G2d2 B2g2 ::\
(gfed) g2B2 g4 | A2a2 A2(Bc) (dcBA) | (gfed) (edcB) g4 | B2d4g2 (gfed) |
(gfed) e2g2 G2g2 | a2A4(Bc) (dcBA) | (Bcd2) G2B2 d4 | B2d4g2 (gfed) ::\
GBdB GBdB G2g2 |
Acec Acec A2a2 | GBdB GBdB G2g2 | B2d4g2 (gfed) |[|\
gbgd BdBG B2g2 | ac'ae cecA c2a2 |
gbgd BdBG BcdB | G2d4g2 (gfed) ::\
G2(dB) G2(dB) GgdB | A2(ec) A2(ec) Aafa | G2(dB) gefd ecBA |
G2d4g2 (gfed) ::\
gdBd GdBd GdBd | aece Aece Aece | gdBd bgfe dcBA | G2d4g2 (gfed) :|
